svg_80x80/actix.svg

<svg viewBox="0 0 80 80" xmlns="http://www.w3.org/2000/svg">
<rect width="100%" height="100%" fill="black"/>
<path d="M69.568 40.0041C69.568 39.0718 71.0695 38.3539 73 38.2137C73 37.6773 72.9257 37.141 72.8762 36.613C70.954 36.8192 69.3535 36.2994 69.205 35.3753C69.0565 34.4512 70.426 33.4693 72.3152 33.0733C72.1997 32.5452 72.076 32.0254 71.9357 31.5138C70.0712 32.0171 68.413 31.7531 68.1242 30.862C67.8355 29.9709 69.0235 28.791 70.8303 28.0979C70.6323 27.6028 70.4342 27.1078 70.2197 26.621C68.4542 27.4048 66.7712 27.4048 66.3422 26.5797C65.9132 25.7546 66.9115 24.3849 68.5863 23.4278C68.3223 22.9575 68.0418 22.5037 67.7613 22.0581C66.1113 23.1143 64.4613 23.3783 63.9333 22.6192C63.4053 21.8601 64.1477 20.3667 65.6492 19.1538C65.311 18.7412 64.9645 18.3287 64.6098 17.9326C63.1743 19.228 61.5737 19.7478 60.9137 19.096C60.2537 18.4442 60.7818 16.8352 62.077 15.3996C61.6728 15.0448 61.252 14.69 60.856 14.3599C59.635 15.8616 58.15 16.629 57.3827 16.0761C56.6155 15.5233 56.8877 13.8649 57.9437 12.2477C57.4982 11.9589 57.0362 11.6783 56.5825 11.4226C55.6172 13.0728 54.256 14.0876 53.4227 13.6668C52.5895 13.246 52.5978 11.5546 53.3815 9.7971C52.8948 9.57432 52.3997 9.36805 51.9047 9.17827C51.2117 10.9852 50.0238 12.1734 49.141 11.8846C48.2583 11.5958 47.986 9.93737 48.4893 8.07263C47.9695 7.92412 47.425 7.8251 46.93 7.68484C46.534 9.57432 45.544 10.9852 44.6282 10.7955C43.7125 10.6057 43.1845 9.04626 43.3907 7.12377C42.8545 7.07426 42.3265 7 41.7902 7C41.6995 8.93074 40.9652 10.4324 40 10.4324C39.0347 10.4324 38.35 8.93074 38.2098 7C37.6735 7 37.1372 7.07426 36.6092 7.12377C36.8155 9.04626 36.2957 10.647 35.3717 10.7955C34.4477 10.944 33.466 9.57432 33.07 7.68484C32.542 7.80035 32.0222 7.92412 31.5107 8.06438C32.014 9.92912 31.75 11.5876 30.859 11.8764C29.968 12.1651 28.7882 10.977 28.0952 9.17002C27.6002 9.36805 27.1053 9.56607 26.6185 9.7806C27.4023 11.5463 27.4022 13.2295 26.5772 13.6586C25.7522 14.0876 24.3827 13.0893 23.4257 11.4143C22.9555 11.6783 22.5017 11.9589 22.0562 12.2394C23.1122 13.8896 23.3763 15.5398 22.6173 16.0679C21.8583 16.5959 20.365 15.8534 19.1522 14.3517C18.7397 14.69 18.3272 15.0365 17.9312 15.3913C19.2265 16.827 19.7462 18.4277 19.0945 19.0878C18.4427 19.7478 16.834 19.2198 15.3985 17.9244C15.0438 18.3287 14.689 18.7495 14.359 19.1455C15.8605 20.3667 16.6277 21.8519 16.075 22.6192C15.5222 23.3865 13.864 23.1143 12.247 22.0581C11.9583 22.5037 11.6778 22.9657 11.422 23.4196C13.072 24.3849 14.0867 25.7463 13.666 26.5797C13.2452 27.4131 11.554 27.4048 9.79675 26.621C9.574 27.1078 9.36775 27.6028 9.178 28.0979C10.9848 28.791 12.1727 29.9791 11.884 30.862C11.5953 31.7448 9.937 32.0171 8.0725 31.5138C7.924 32.0336 7.825 32.5782 7.68475 33.0733C9.574 33.4693 10.9847 34.4594 10.795 35.3753C10.6052 36.2912 9.046 36.8192 7.12375 36.613C7.07425 37.1493 7 37.6773 7 38.2137C8.9305 38.3044 10.432 39.0388 10.432 40.0041C10.432 40.9695 8.9305 41.6543 7 41.7946C7 42.3309 7.07425 42.8672 7.12375 43.3953C9.046 43.189 10.6465 43.7088 10.795 44.633C10.9435 45.5571 9.574 46.5389 7.68475 46.935C7.80025 47.4631 7.924 47.9829 8.06425 48.4944C9.92875 47.9911 11.587 48.2552 11.8757 49.1463C12.1645 50.0374 10.9765 51.2173 9.16975 51.9104C9.36775 52.4054 9.56575 52.9005 9.78025 53.3873C11.5457 52.6035 13.2287 52.6035 13.6577 53.4286C14.0867 54.2537 13.0885 55.6233 11.4137 56.5804C11.6777 57.0508 11.9582 57.5046 12.2387 57.9501C13.8887 56.894 15.5387 56.63 16.0667 57.389C16.5947 58.1481 15.8522 59.6416 14.3507 60.8545C14.689 61.267 15.0355 61.6796 15.3902 62.0756C16.8257 60.7802 18.4262 60.2604 19.0862 60.9122C19.7462 61.5641 19.2182 63.173 17.923 64.6087C18.3272 64.9635 18.748 65.3183 19.144 65.6483C20.365 64.1466 21.85 63.3793 22.6173 63.9321C23.3845 64.4849 23.1122 66.1434 22.0562 67.7606C22.5017 68.0494 22.9637 68.3299 23.4175 68.5857C24.3827 66.9355 25.744 65.9206 26.5772 66.3414C27.4105 66.7622 27.4023 68.4537 26.6185 70.2112C27.1053 70.4339 27.6002 70.6402 28.0952 70.83C28.7882 69.023 29.9762 67.8349 30.859 68.1236C31.7417 68.4124 32.014 70.0709 31.5107 71.9356C32.0305 72.0759 32.5502 72.1997 33.07 72.3152C33.466 70.4257 34.456 69.0148 35.3717 69.2045C36.2875 69.3943 36.8155 70.9537 36.6092 72.8762C37.1455 72.9257 37.6735 72.967 38.2098 73C38.3005 71.0693 39.0347 69.5676 40 69.5676C40.9652 69.5676 41.65 71.0693 41.7902 73C42.3265 73 42.8627 72.9257 43.3907 72.8762C43.1845 70.9537 43.7042 69.353 44.6282 69.2045C45.5522 69.056 46.534 70.4257 46.93 72.3152C47.458 72.1997 47.9778 72.0759 48.4893 71.9356C47.986 70.0709 48.25 68.4124 49.141 68.1236C50.032 67.8349 51.2117 69.023 51.9047 70.83C52.3997 70.632 52.8948 70.4339 53.3815 70.2194C52.5978 68.4537 52.5977 66.7705 53.4227 66.3414C54.2477 65.9124 55.6172 66.9107 56.5742 68.5857C57.0445 68.3217 57.4982 68.0411 57.9437 67.7606C56.8877 66.1104 56.6237 64.4602 57.3827 63.9321C58.1417 63.4041 59.635 64.1466 60.8477 65.6483C61.2602 65.31 61.6727 64.9635 62.0687 64.6087C60.7735 63.173 60.2537 61.5723 60.9055 60.9122C61.5572 60.2522 63.166 60.7802 64.6015 62.0756C64.9562 61.6713 65.311 61.2505 65.641 60.8545C64.1395 59.6416 63.3722 58.1564 63.925 57.389C64.4777 56.6217 66.136 56.894 67.753 57.9501C68.0417 57.5046 68.3222 57.0425 68.578 56.5887C66.928 55.6233 65.9132 54.2619 66.334 53.4286C66.7547 52.5952 68.446 52.6035 70.2032 53.3873C70.426 52.9005 70.6322 52.4054 70.822 51.9104C69.0152 51.2173 67.8273 50.0291 68.116 49.1463C68.4048 48.2634 70.063 47.9911 71.9275 48.4944C72.0677 47.9746 72.1915 47.4548 72.307 46.935C70.4178 46.5389 69.007 45.5488 69.1967 44.633C69.3865 43.7171 70.9457 43.189 72.868 43.3953C72.9175 42.859 72.9587 42.3309 72.9917 41.7946C71.0695 41.7038 69.568 40.9365 69.568 40.0041V40.0041ZM56.236 22.677C56.701 22.677 57.1556 22.8149 57.5423 23.0733C57.9289 23.3317 58.2303 23.6989 58.4083 24.1286C58.5862 24.5583 58.6328 25.0311 58.5421 25.4873C58.4513 25.9434 58.2274 26.3624 57.8986 26.6913C57.5698 27.0202 57.1508 27.2441 56.6947 27.3349C56.2386 27.4256 55.7658 27.379 55.3362 27.201C54.9066 27.0231 54.5394 26.7217 54.281 26.335C54.0226 25.9482 53.8848 25.4936 53.8848 25.0285C53.8869 24.4055 54.1353 23.8086 54.5758 23.3681C55.0163 22.9276 55.6131 22.6791 56.236 22.677V22.677ZM17.725 31.3735C18.1251 31.1361 18.5867 31.0228 19.0513 31.0478C19.5158 31.0728 19.9625 31.2352 20.3348 31.5142C20.7071 31.7933 20.9883 32.1765 21.1427 32.6155C21.2971 33.0544 21.3178 33.5293 21.2023 33.98C21.0867 34.4307 20.8401 34.837 20.4935 35.1475C20.147 35.458 19.7161 35.6586 19.2555 35.7241C18.7949 35.7896 18.3252 35.7169 17.9059 35.5153C17.4866 35.3136 17.1365 34.9921 16.9 34.5914C16.5856 34.0546 16.4959 33.4153 16.6504 32.8127C16.8049 32.2101 17.1911 31.6928 17.725 31.3735V31.3735ZM39.043 64.7572C38.534 65.2281 37.9339 65.5896 37.2798 65.8195C36.6257 66.0494 35.9314 66.1428 35.2397 66.0939C33.1305 66.0165 31.0637 65.4787 29.1842 64.5179C25.2369 62.6489 21.7984 59.8553 19.1605 56.3742C16.8193 53.4373 15.1622 50.0154 14.3095 46.3574C13.9402 44.8898 13.8784 43.3616 14.128 41.8689C14.1859 41.2969 14.3628 40.7433 14.6471 40.2437C14.9315 39.7441 15.3172 39.3094 15.7793 38.9676C16.2415 38.6258 16.7701 38.3843 17.331 38.2587C17.892 38.1332 18.473 38.1262 19.0367 38.2384C20.9677 38.5306 22.8117 39.2401 24.4405 40.3177C27.9666 42.5089 31.1101 45.2626 33.7465 48.4697C35.1616 50.1044 36.4262 51.8635 37.525 53.7256C38.8607 55.7899 39.767 58.1022 40.1897 60.5244C40.3712 62.0756 40.2392 63.5691 39.043 64.7572V64.7572ZM40 46.5059C38.7142 46.5059 37.4573 46.1246 36.3882 45.4102C35.3192 44.6958 34.4859 43.6803 33.9939 42.4923C33.5018 41.3042 33.3731 39.9969 33.6239 38.7357C33.8748 37.4745 34.4939 36.3159 35.4031 35.4066C36.3123 34.4974 37.4706 33.8781 38.7317 33.6272C39.9928 33.3764 41.2999 33.5051 42.4878 33.9972C43.6757 34.4893 44.691 35.3227 45.4054 36.3919C46.1197 37.4611 46.501 38.7182 46.501 40.0041C46.501 41.7285 45.8161 43.3823 44.5969 44.6016C43.3777 45.8209 41.7242 46.5059 40 46.5059V46.5059ZM46.864 62.7192C46.6284 63.121 46.2789 63.4438 45.8596 63.6467C45.4404 63.8495 44.9703 63.9233 44.5091 63.8586C44.0479 63.7939 43.6163 63.5937 43.269 63.2833C42.9217 62.9729 42.6744 62.5664 42.5585 62.1153C42.4425 61.6642 42.4631 61.1888 42.6177 60.7494C42.7723 60.31 43.0538 59.9264 43.4267 59.6473C43.7995 59.3682 44.2468 59.2061 44.7119 59.1815C45.177 59.157 45.6389 59.2712 46.039 59.5096C46.5706 59.8288 46.9553 60.3445 47.1096 60.9452C47.264 61.5458 47.1758 62.1831 46.864 62.7192V62.7192ZM35.7925 30.3504C33.6759 30.7487 31.5277 30.9558 29.374 30.9692C26.9163 31.095 24.4585 30.7246 22.147 29.8801C21.418 29.6611 20.7544 29.2657 20.2147 28.7288C19.6751 28.192 19.2761 27.5303 19.0532 26.8025C18.9005 26.1248 18.8884 25.4229 19.0175 24.7403C19.1466 24.0577 19.4143 23.4088 19.804 22.8337C20.9254 21.0468 22.4233 19.5263 24.193 18.3782C27.7863 15.8985 31.9231 14.3194 36.2545 13.7741C39.9661 13.2282 43.7525 13.51 47.3425 14.5992C48.8004 15.013 50.157 15.7237 51.3272 16.6867C51.7929 17.0232 52.1831 17.4533 52.4729 17.9494C52.7627 18.4455 52.9456 18.9967 53.0101 19.5676C53.0746 20.1385 53.0191 20.7166 52.8472 21.2648C52.6753 21.813 52.3909 22.3193 52.012 22.7512C50.7943 24.2808 49.2569 25.5255 47.5075 26.3982C43.8444 28.3462 39.887 29.6813 35.7925 30.3504V30.3504ZM64.585 49.9054C63.2073 53.3932 61.0778 56.5344 58.348 59.1053C57.2548 60.1415 55.9602 60.9419 54.5448 61.4568C54.0187 61.6897 53.4497 61.8099 52.8743 61.8098C52.299 61.8097 51.7301 61.6892 51.2041 61.4561C50.6781 61.2229 50.2067 60.8824 49.8201 60.4562C49.4336 60.03 49.1404 59.5277 48.9595 58.9815C48.2407 57.1624 47.9309 55.2075 48.052 53.2553C48.1903 49.1055 49.004 45.006 50.461 41.118C51.175 39.0866 52.0696 37.1232 53.134 35.2515C54.2519 33.0586 55.8042 31.116 57.6962 29.5418C58.9255 28.5847 60.2867 27.9494 61.8955 28.3949C62.5588 28.6004 63.1728 28.9401 63.6993 29.3929C64.2259 29.8457 64.6537 30.4019 64.9562 31.027C65.9373 32.891 66.5003 34.9465 66.6062 37.0503C66.9786 41.4356 66.2852 45.846 64.585 49.9054V49.9054Z" fill="white"/>
</svg>

<svg xmlns="http://www.w3.org/2000/svg" viewBox="0 0 80 80">
  <rect width="100%" height="100%"/>
  <path fill="#fff" d="M69.57 40c0-.93 1.5-1.65 3.43-1.79 0-.53-.07-1.07-.12-1.6-1.93.2-3.53-.31-3.67-1.23-.15-.93 1.22-1.91 3.1-2.3-.11-.53-.23-1.05-.37-1.57-1.87.5-3.53.24-3.82-.65-.28-.89.9-2.07 2.71-2.76-.2-.5-.4-1-.61-1.48-1.77.78-3.45.78-3.88-.04-.43-.83.57-2.2 2.25-3.15-.27-.47-.55-.93-.83-1.37-1.65 1.05-3.3 1.32-3.83.56-.52-.76.22-2.25 1.72-3.47l-1.04-1.22c-1.44 1.3-3.04 1.82-3.7 1.17-.66-.66-.13-2.26 1.17-3.7-.4-.36-.83-.71-1.22-1.04-1.23 1.5-2.71 2.27-3.48 1.72-.76-.56-.5-2.22.56-3.83-.44-.3-.9-.57-1.36-.83-.96 1.65-2.32 2.67-3.16 2.25-.83-.42-.82-2.12-.04-3.87a25.4 25.4 0 0 0-1.48-.62c-.69 1.8-1.88 3-2.76 2.7-.88-.28-1.15-1.94-.65-3.8-.52-.16-1.07-.25-1.56-.4-.4 1.9-1.39 3.3-2.3 3.12-.92-.2-1.45-1.75-1.24-3.68-.54-.05-1.06-.12-1.6-.12-.09 1.93-.82 3.43-1.79 3.43-.97 0-1.65-1.5-1.79-3.43-.54 0-1.07.07-1.6.12.2 1.93-.31 3.53-1.24 3.68-.92.14-1.9-1.23-2.3-3.12-.53.12-1.05.24-1.56.38.5 1.87.24 3.53-.65 3.82-.9.29-2.07-.9-2.76-2.71-.5.2-1 .4-1.48.61.78 1.77.78 3.45-.04 3.88-.83.43-2.2-.57-3.15-2.25-.47.27-.93.55-1.37.83 1.05 1.65 1.32 3.3.56 3.83-.76.53-2.26-.22-3.47-1.72l-1.22 1.04c1.3 1.44 1.82 3.04 1.16 3.7-.65.66-2.26.13-3.7-1.17-.35.4-.7.83-1.03 1.23 1.5 1.22 2.27 2.7 1.71 3.47-.55.77-2.2.5-3.82-.56-.3.44-.57.9-.83 1.36 1.65.96 2.67 2.33 2.25 3.16-.42.83-2.12.82-3.87.04-.23.49-.43.98-.62 1.48 1.8.7 3 1.88 2.7 2.76-.28.88-1.94 1.16-3.8.65-.16.52-.25 1.07-.4 1.56 1.9.4 3.3 1.39 3.12 2.3-.2.92-1.75 1.45-3.68 1.24-.05.54-.12 1.07-.12 1.6 1.93.1 3.43.83 3.43 1.8 0 .96-1.5 1.64-3.43 1.78 0 .54.07 1.08.12 1.6 1.93-.2 3.53.32 3.67 1.24.15.93-1.22 1.9-3.1 2.3.11.53.23 1.05.37 1.56 1.87-.5 3.53-.23 3.82.66.28.89-.9 2.07-2.71 2.76.2.5.4 1 .61 1.48 1.77-.79 3.45-.79 3.88.04.43.82-.57 2.2-2.25 3.15.27.47.55.92.83 1.37 1.65-1.06 3.3-1.32 3.83-.56.52.76-.22 2.25-1.72 3.46.34.42.69.83 1.04 1.23 1.44-1.3 3.04-1.82 3.7-1.17.66.65.13 2.26-1.17 3.7l1.22 1.04c1.22-1.5 2.71-2.27 3.48-1.72.76.55.5 2.21-.56 3.83.44.29.9.57 1.36.83.96-1.65 2.32-2.67 3.16-2.25.83.42.82 2.11.04 3.87.49.22.98.43 1.48.62.69-1.8 1.88-3 2.76-2.7.88.28 1.15 1.94.65 3.8.52.15 1.04.27 1.56.39.4-1.9 1.39-3.3 2.3-3.12.92.2 1.45 1.75 1.24 3.68.54.05 1.06.09 1.6.12.09-1.93.82-3.43 1.79-3.43.97 0 1.65 1.5 1.79 3.43.54 0 1.07-.07 1.6-.12-.2-1.93.31-3.53 1.24-3.68.92-.14 1.9 1.23 2.3 3.12.53-.12 1.05-.24 1.56-.38-.5-1.87-.24-3.53.65-3.82.9-.29 2.07.9 2.76 2.71.5-.2 1-.4 1.48-.61-.78-1.77-.78-3.45.04-3.88.83-.43 2.2.57 3.15 2.25.47-.27.93-.55 1.37-.83-1.05-1.65-1.32-3.3-.56-3.83.76-.53 2.25.22 3.47 1.72l1.22-1.04c-1.3-1.44-1.82-3.04-1.16-3.7.65-.66 2.26-.13 3.7 1.17.35-.4.7-.83 1.03-1.23-1.5-1.2-2.27-2.7-1.72-3.46.56-.77 2.22-.5 3.83.56.3-.45.57-.9.83-1.36-1.65-.97-2.67-2.33-2.25-3.16.42-.83 2.12-.83 3.87-.04.23-.49.43-.98.62-1.48-1.8-.7-3-1.88-2.7-2.76.28-.89 1.94-1.16 3.8-.66.15-.52.27-1.04.39-1.55-1.9-.4-3.3-1.4-3.11-2.3.19-.92 1.75-1.45 3.67-1.24l.12-1.6c-1.92-.1-3.42-.86-3.42-1.8ZM56.24 22.68a2.35 2.35 0 1 1 0 4.7 2.35 2.35 0 0 1 0-4.7Zm-38.52 8.7a2.35 2.35 0 1 1 2.4 4.04 2.35 2.35 0 0 1-2.4-4.05Zm21.32 33.38a5.07 5.07 0 0 1-3.8 1.33c-2.11-.07-4.18-.61-6.06-1.57a27.16 27.16 0 0 1-10.02-8.15c-2.34-2.93-4-6.35-4.85-10.01-.37-1.47-.43-3-.18-4.5a4.13 4.13 0 0 1 4.9-3.62c1.94.3 3.78 1 5.41 2.08a38.03 38.03 0 0 1 9.3 8.15 35.93 35.93 0 0 1 3.78 5.26 18.3 18.3 0 0 1 2.67 6.8c.18 1.55.05 3.04-1.15 4.23ZM40 46.5a6.5 6.5 0 1 1 0-13 6.5 6.5 0 0 1 0 13Zm6.86 16.2a2.35 2.35 0 1 1-4.05-2.37 2.35 2.35 0 0 1 4.05 2.38ZM35.8 30.36c-2.11.4-4.26.6-6.42.62-2.45.13-4.91-.25-7.22-1.09a4.63 4.63 0 0 1-3.1-3.08 5.08 5.08 0 0 1 .75-3.97 14.5 14.5 0 0 1 4.4-4.45 27.22 27.22 0 0 1 12.05-4.6c3.72-.55 7.5-.27 11.1.82a11 11 0 0 1 3.98 2.09 4.12 4.12 0 0 1 .68 6.06 13.4 13.4 0 0 1-4.5 3.65 38 38 0 0 1-11.72 3.95Zm28.8 19.56a25.51 25.51 0 0 1-6.24 9.2 10.99 10.99 0 0 1-3.8 2.35 4.12 4.12 0 0 1-5.59-2.48 13.34 13.34 0 0 1-.9-5.72c.13-4.15.94-8.25 2.4-12.14.71-2.03 1.61-4 2.67-5.87a18.15 18.15 0 0 1 4.57-5.7c1.23-.97 2.59-1.6 4.2-1.16a5.07 5.07 0 0 1 3.06 2.64 14.5 14.5 0 0 1 1.65 6.02 27.3 27.3 0 0 1-2.03 12.86Z"/>
</svg>
